Src/Delivery/studio/bitmaps/src/icons/7/20.svg

<?xml version="1.0" encoding="UTF-8"?>
<svg width="100" height="100" version="1.1" viewBox="0 0 100 100" xmlns="http://www.w3.org/2000/svg" xmlns:xlink="http://www.w3.org/1999/xlink">
 <path d="m41 17.5v23.5h-23.5v18h23.5v23.5h18v-23.5h23.5v-18h-23.5v-23.5z" fill="#4676df" stroke="#002e9d" stroke-linecap="square" stroke-width="8" style="paint-order:stroke fill markers"/>
</svg>

<?xml version="1.0" encoding="UTF-8" standalone="no"?>
<svg
   xmlns:dc="http://purl.org/dc/elements/1.1/"
   xmlns:cc="http://creativecommons.org/ns#"
   xmlns:rdf="http://www.w3.org/1999/02/22-rdf-syntax-ns#"
   xmlns:svg="http://www.w3.org/2000/svg"
   xmlns="http://www.w3.org/2000/svg"
   xmlns:xlink="http://www.w3.org/1999/xlink"
   xmlns:sodipodi="http://sodipodi.sourceforge.net/DTD/sodipodi-0.dtd"
   xmlns:inkscape="http://www.inkscape.org/namespaces/inkscape"
   height="100"
   viewBox="0 0 100 100"
   width="100"
   version="1.1"
   id="svg36"
   sodipodi:docname="20.svg"
   inkscape:version="1.0.2-2 (e86c870879, 2021-01-15)">
  <metadata
     id="metadata42">
    <rdf:RDF>
      <cc:Work
         rdf:about="">
        <dc:format>image/svg+xml</dc:format>
        <dc:type
           rdf:resource="http://purl.org/dc/dcmitype/StillImage" />
        <dc:title></dc:title>
      </cc:Work>
    </rdf:RDF>
  </metadata>
  <defs
     id="defs40" />
  <sodipodi:namedview
     pagecolor="#ffffff"
     bordercolor="#666666"
     borderopacity="1"
     objecttolerance="10"
     gridtolerance="10"
     guidetolerance="10"
     inkscape:pageopacity="0"
     inkscape:pageshadow="2"
     inkscape:window-width="3840"
     inkscape:window-height="2080"
     id="namedview38"
     showgrid="false"
     showguides="true"
     inkscape:guide-bbox="true"
     inkscape:zoom="0.22273864"
     inkscape:cx="815.22122"
     inkscape:cy="1743.3772"
     inkscape:window-x="2869"
     inkscape:window-y="-11"
     inkscape:window-maximized="1"
     inkscape:current-layer="svg36"
     inkscape:document-rotation="0" />
  <linearGradient
     id="a">
    <stop
       offset="0"
       stop-color="#c9c9c9"
       id="stop2" />
    <stop
       offset="1"
       stop-color="#e3f9fc"
       id="stop4" />
  </linearGradient>
  <linearGradient
     id="b"
     gradientTransform="matrix(.84335867 .40834093 -.39923406 .86259641 28.26115 -6.440423)"
     gradientUnits="userSpaceOnUse"
     x1="9.940678"
     x2="24.805084"
     xlink:href="#a"
     y1="77.542374"
     y2="48.728813" />
  <linearGradient
     id="c"
     gradientTransform="matrix(.84335867 .40834093 -.39923406 .86259641 28.26115 -18.440423)"
     gradientUnits="userSpaceOnUse"
     x1="9.940678"
     x2="24.805084"
     xlink:href="#a"
     y1="77.542374"
     y2="48.728813" />
  <linearGradient
     id="d"
     gradientTransform="matrix(.84335867 .40834093 -.39923406 .86259641 28.26115 -32.440423)"
     gradientUnits="userSpaceOnUse"
     x1="9.940678"
     x2="24.805084"
     xlink:href="#a"
     y1="77.542374"
     y2="48.728813" />
  <g
     id="g837">
    <path
       id="rect868"
       style="fill:#4676df;fill-opacity:1;stroke:#002e9d;stroke-width:7.99999;stroke-linecap:square;stroke-linejoin:miter;stroke-opacity:1;paint-order:stroke fill markers"
       d="M 41,17.5 V 41 H 17.5 V 59 H 41 V 82.5 H 59 V 59 H 82.5 V 41 H 59 V 17.5 Z"
       sodipodi:nodetypes="ccccccccccccc" />
  </g>
</svg>
